public/careers/Medical.svg

<svg width="45" height="45" viewBox="0 0 45 45" fill="none" xmlns="http://www.w3.org/2000/svg">
<circle cx="22.5" cy="22.5" r="22.5" fill="#BFBFFF" fill-opacity="0.3"/>
<path d="M20 26H14.75C14.5511 26 14.3603 25.921 14.2197 25.7803C14.079 25.6397 14 25.4489 14 25.25V20.75C14 20.5511 14.079 20.3603 14.2197 20.2197C14.3603 20.079 14.5511 20 14.75 20H20V14.75C20 14.5511 20.079 14.3603 20.2197 14.2197C20.3603 14.079 20.5511 14 20.75 14H25.25C25.4489 14 25.6397 14.079 25.7803 14.2197C25.921 14.3603 26 14.5511 26 14.75V20H31.25C31.4489 20 31.6397 20.079 31.7803 20.2197C31.921 20.3603 32 20.5511 32 20.75V25.25C32 25.4489 31.921 25.6397 31.7803 25.7803C31.6397 25.921 31.4489 26 31.25 26H26V31.25C26 31.4489 25.921 31.6397 25.7803 31.7803C25.6397 31.921 25.4489 32 25.25 32H20.75C20.5511 32 20.3603 31.921 20.2197 31.7803C20.079 31.6397 20 31.4489 20 31.25V26Z" stroke="#6B59ED" stroke-width="1.5" stroke-linecap="round" stroke-linejoin="round"/>
</svg>

<svg width="45" height="45" fill="none" xmlns="http://www.w3.org/2000/svg"><circle cx="22.5" cy="22.5" r="22.5" fill="#BFBFFF" fill-opacity=".3"/><path d="M20 26h-5.25a.75.75 0 0 1-.75-.75v-4.5a.75.75 0 0 1 .75-.75H20v-5.25a.75.75 0 0 1 .75-.75h4.5a.75.75 0 0 1 .75.75V20h5.25a.75.75 0 0 1 .75.75v4.5a.75.75 0 0 1-.75.75H26v5.25a.75.75 0 0 1-.75.75h-4.5a.75.75 0 0 1-.75-.75V26Z" stroke="#6B59ED" stroke-width="1.5" stroke-linecap="round" stroke-linejoin="round"/></svg>
